X:1
T:The Croodin' Doo
M:6/8
L:1/8
K:G
 D| G2 G A3|B-c B A2 D| GFGA-G A| B3 z2 D|G-F G AGA| BcBA-G z| EcBA-G F|\
 G2 F E2 z| EcBA-G F| G3 z2||
